X:1
T:Henry Martyn - Luxton
C:Taken down from Roger Luxton, Halwell, by H.Fl.S. 1889.
%%VWML:SBG-1-1-266-0
F:http://www.vwml.org/record/SBG/1/1/266
Z:Original Sibleius Transcription by Martin and Shan Graebe
L:1/4
M:6/4
I:linebreak $
K:G
E | E B B (B A) B | G A G (F A) F | (D F) A (A G) A | d3 z2 G/A/ |$ B B B e d e | 
(B3/2 c/) B/A/ (G F E | A G A B2) e | d B G F A F | E3 z3 | 
T:Henry Martyn - Baker
T:Taken down from Matthew Baker, Lew Down by F.W.B. Sept. 14, 1890.
L:1/8
M:6/8
I:linebreak $
K:Bb
F | c2 c cBc | AcG _E2 F | B2 B BAB | (c3 c2) c/d/ | edc c2 d/e/ |$ f3 F2 F | GFE BAB | 
c3 c2 F/F/ |"^Though in F tonally Eb throughout. F.W.B." ccB ABG | F6 || 
T:Henry Martyn - Kidson
T:Taken down in Yorkshire by Frank Kidson.
L:1/4
M:6/4
I:linebreak $
K:Eb
C | C G ^F G C D | E F E D2 D | C =B, C (E D) E | (F E) F G2 B |$ 
B G B !fermata!B !fermata!=A G/ | F C D (E D) C | (F3 G/A/G/)F/ E2 F | G B G F3/2 C/ | C2 z2  || 
T:Henry Martyn - Kidson
T:Taken down in Yorkshire by Frank Kidson.
L:1/8
M:6/8
I:linebreak $
K:F
C | F F G A2 G | F E F C2 C | F E F G A B | (c3 c2) A/B/ |$ c B A G A B | c F E D2 B/ B/ | 
A G F C D E | (F3 F2) z | 
T:Henry Martyn - Burstow
T:Taken down from H. Burstow, Sussex by L.E.B. Jan. 1894
L:1/4
M:3/4
I:linebreak $
K:G
C | C E G | G E G | G F D | C2 C | F E F | G c B | (G3 | G2) C | [GE] [Gc] c |$ B A G | G C D | 
(E D) C | _B3 | c/>_B/ G C | E G _B/A/ | G3/2 F/ D | (C3 | C2) ||

